X:1
T:Title
%%score { ( 1 3 ) | ( 2 4 ) }
L:1/8
Q:1/4=100
M:4/4
K:G
V:1 treble nm="Grand Piano"
V:3 treble 
V:2 treble 
V:4 treble 
V:1
 BBBB B>A GB | d2 [Fd]2 d4 |[M:3/4] BB BB B>A |[M:1/4] GB |[M:4/4] z4 A2 z2 | BBBB B>A GB | %6
w: Asa~Hull * * * * * * *||||||
 d2 [Fd]2 [Gd]4 | [Ed][Ec][EB][EA] G>F GA | B2 A2 [B,DG]4 |[M:3/4] BB BB B>A |[M:1/4] GB | %11
w: |||||
[M:4/4] d2 [Fd]2 [Gd]4 | [Ge][Ge]ee d>[Fc] [GB][EAc] | [DGB]2 [CFA]2 [B,G]4 |] %14
w: |||
V:2
 [G,DG][G,DG][G,DG][G,DG] [G,DG]>[G,CG] [G,B,][G,DG] | [G,B,G]2 [D,C]2 [G,B,G]4 | %2
[M:3/4] [G,DG][G,DG] [G,DG][G,DG] [G,DG]>[G,CG] |[M:1/4] [G,B,][G,DG] | %4
[M:4/4][K:bass] D,2 z[K:treble] G D,4 | [G,DG][G,DG][G,DG][G,DG] [G,DG]>[G,CG] [G,B,][G,DG] | %6
 [G,B,G]2[K:bass] [D,C]2 [G,B,]4 | [C,C][C,C][C,C][C,C] [D,B,D]>[D,A,D] [D,B,D][D,CD] | %8
 [D,D]2 [D,CD]2 G,,4 |[M:3/4][K:treble] [G,DG][G,DG] [G,DG][G,DG] [G,DG]>[G,CG] | %10
[M:1/4] [G,B,][G,DG] |[M:4/4] [G,B,G]2[K:bass] [D,C]2 [G,B,]4 | %12
 [C,C][E,C][K:treble][G,CG][CG] [G,B,G]>[K:bass][D,A,] [E,G,]C, | D,2 D,2 G,4 |] %14
V:3
 x8 | x8 |[M:3/4] x6 |[M:1/4] x2 |[M:4/4] [DFA]2 .[^CEA]2 [DF]2- [DF_B]2 | x8 | x8 | x8 | x8 | %9
[M:3/4] x6 |[M:1/4] x2 |[M:4/4] x8 | x8 | x8 |] %14
V:4
 x8 | x8 |[M:3/4] x6 |[M:1/4] x2 |[M:4/4][K:bass] z2 A,,2[K:treble] z4 | x8 | x2[K:bass] x6 | x8 | %8
 x8 |[M:3/4][K:treble] x6 |[M:1/4] x2 |[M:4/4] x2[K:bass] x6 | x2[K:treble] x7/2[K:bass] x5/2 | %13
 x8 |] %14

